z_dist/img/icons/crypto/dash-DASH.svg

<svg width="64" height="64" viewBox="0 0 64 64" fill="none" xmlns="http://www.w3.org/2000/svg">
<rect width="64" height="64" rx="4" fill="#008CE3"/>
<path d="M36.8636 17.9883H24.2944L23.2641 23.799L34.5971 23.8196C40.1811 23.8196 41.8295 25.8389 41.7883 29.1976C41.7677 30.9284 41.0259 33.8337 40.6962 34.7816C39.8308 37.2954 38.0793 40.1802 31.4444 40.1596H20.4206L19.3698 45.9909H31.8978C36.3073 45.9909 38.203 45.4757 40.1811 44.5485C44.5906 42.5086 47.2281 38.1609 48.279 32.4738C49.8656 24.005 47.9081 17.9883 36.8636 17.9883" fill="white"/>
<path d="M18.8943 29.0742C15.5974 29.0742 15.1235 31.2172 14.8144 32.5153C14.4023 34.2049 14.2787 34.9055 14.2787 34.9055H27.1364C30.4332 34.9055 30.9071 32.7626 31.2162 31.4644C31.6283 29.7748 31.752 29.0742 31.752 29.0742H18.8943Z" fill="white"/>
</svg>

<svg width="64" height="64" fill="none" xmlns="http://www.w3.org/2000/svg"><rect width="64" height="64" rx="4" fill="#008CE3"/><path d="M36.864 17.988h-12.57l-1.03 5.811 11.333.02c5.584 0 7.233 2.02 7.191 5.379-.02 1.73-.762 4.636-1.092 5.584-.865 2.513-2.617 5.398-9.252 5.378H20.421l-1.051 5.83h12.528c4.41 0 6.305-.514 8.283-1.442 4.41-2.04 7.047-6.387 8.098-12.074 1.587-8.469-.37-14.486-11.415-14.486" fill="#fff"/><path d="M18.894 29.074c-3.297 0-3.77 2.143-4.08 3.441-.412 1.69-.535 2.39-.535 2.39h12.857c3.297 0 3.771-2.142 4.08-3.44.412-1.69.536-2.39.536-2.39H18.894z" fill="#fff"/></svg>
